X:506
T:Rom bom bom bom bombolom
Z:Jack Campin, http://www.campin.me.uk/
F:Jack Campin's Nine-Note Tunebook
% last edit 03-02-2013
B:Bazsarozsa: 99 Cigany Nepdal, Editio Musica Budapest Z.1813
N:This is Gypsy folk music, not the music of Gypsy professional
N:musicians.  It's usually performed vocally with no instruments
N:other than percussion done by clapping, stamping or whacking
N:large jugs.  So I've included the words, which are a mixture
N:of Romany, Hungarian and nonsense.
M:2/4
L:1/8
Q:1/4=88 % accelerate to 100
K:CMix
FF  EE   |FF    G2|cc    dB   |AA    F2 |
w:Rom bom bom bom bom-bo-lom, ve-res laj-bim gom-bo-lom
cc  dB   |AA    F2|DD    DF   |C<C   C2||
w:A-hai Dev-la mu-ro d'i, sa du-kal ma da-ra t'i.
F2  EC   |FF    G2|cc/d/ BB/G/|AA/G/ FF |
w:Ai na-na tin-na-na tin-na-na tin-na-na tin-na-na nan-na
c>d BB/G/|AA/G/ FF|DD/C/ DD/F/|CC    CC|]
w:Ta-na ti-na-na ti-na-na  ti-na-na nan-na ti-na-na tin-na nan-na.


% == Early music ============================================================

